public/logo.svg

<?xml version="1.0" encoding="UTF-8" standalone="no"?>
<!-- Created with Inkscape (http://www.inkscape.org/) -->

<svg
   width="80"
   height="48"
   viewBox="0 0 21.166667 12.7"
   version="1.1"
   id="svg5"
   xml:space="preserve"
   inkscape:version="1.2.2 (732a01da63, 2022-12-09)"
   sodipodi:docname="logo.svg"
   inkscape:export-filename="logo102.png"
   inkscape:export-xdpi="200"
   inkscape:export-ydpi="200"
   xmlns:inkscape="http://www.inkscape.org/namespaces/inkscape"
   xmlns:sodipodi="http://sodipodi.sourceforge.net/DTD/sodipodi-0.dtd"
   xmlns:xlink="http://www.w3.org/1999/xlink"
   xmlns="http://www.w3.org/2000/svg"
   xmlns:svg="http://www.w3.org/2000/svg"><sodipodi:namedview
     id="namedview7"
     pagecolor="#505050"
     bordercolor="#eeeeee"
     borderopacity="1"
     inkscape:showpageshadow="0"
     inkscape:pageopacity="0"
     inkscape:pagecheckerboard="0"
     inkscape:deskcolor="#505050"
     inkscape:document-units="mm"
     showgrid="false"
     inkscape:zoom="3.9228891"
     inkscape:cx="57.738058"
     inkscape:cy="62.708884"
     inkscape:window-width="1920"
     inkscape:window-height="1009"
     inkscape:window-x="-8"
     inkscape:window-y="-8"
     inkscape:window-maximized="1"
     inkscape:current-layer="layer1" /><defs
     id="defs2"><linearGradient
       inkscape:collect="always"
       id="linearGradient11216"><stop
         style="stop-color:#d45500;stop-opacity:0;"
         offset="0"
         id="stop11214" /><stop
         style="stop-color:#d45500;stop-opacity:1;"
         offset="0.56298202"
         id="stop11212" /></linearGradient><radialGradient
       inkscape:collect="always"
       xlink:href="#linearGradient11216"
       id="radialGradient11232"
       cx="116.1147"
       cy="83.009277"
       fx="116.1147"
       fy="83.009277"
       r="13.973234"
       gradientTransform="matrix(1,0,0,1.7210402,0,-59.853027)"
       gradientUnits="userSpaceOnUse" /></defs><g
     inkscape:groupmode="layer"
     id="layer2"
     inkscape:label="guides" /><g
     inkscape:label="Calque 1"
     inkscape:groupmode="layer"
     id="layer1"><g
       id="g11302"
       transform="matrix(0.76651729,0,0,0.77175354,-190.98195,-60.665972)"
       style="stroke-width:1.30017"><g
         id="g317"
         transform="matrix(0.11082341,0,0,0.11174831,220.33947,44.108141)"
         style="stroke-width:11.6832"><path
           id="text7981-2"
           style="font-style:normal;font-variant:normal;font-weight:bold;font-stretch:normal;font-size:176.652px;font-family:Rubik;-inkscape-font-specification:'Rubik Bold';fill:#e8e4d4;fill-opacity:1;stroke:none;stroke-width:0.549112;stroke-dasharray:none;stroke-opacity:1;paint-order:fill markers stroke;stop-color:#000000"
           d="m 280.6918,74.347454 -23.54488,91.973916 h 36.66244 c 0,0 5.9903,0.13483 11.88005,4.17324 5.65663,3.87857 10.97648,9.74088 11.49265,26.72636 l -9.06607,29.33464 17.11524,8.64457 10.45423,-33.83984 -0.0161,-2.28309 c -0.15684,-25.94369 -10.90564,-42.19342 -21.2797,-49.30658 -10.37406,-7.11317 -20.58025,-6.97121 -20.58025,-6.97121 h -11.28282 l 15.65175,-61.142058 z m 18.19671,15.764827 -5.17062,20.215839 c 0.86079,-0.0685 1.69818,-0.1084 2.50729,-0.1084 11.65901,0 18.37426,6.36012 18.37426,16.25261 0,5.98323 -2.46514,10.99371 -8.18367,15.44641 2.91085,1.08483 6.06228,2.57331 9.26515,4.76942 2.58388,1.77169 5.16386,4.13056 7.6241,6.94411 8.47943,-7.80379 12.49343,-16.0961 12.49343,-27.86452 0,-21.67803 -13.6832,-35.373738 -36.90994,-35.655469 z m -26.49875,5.419795 c -3.034,1.342976 -5.899,2.876194 -8.49036,4.620374 -1.05991,0.70661 -1.58724,1.76465 -1.58724,3.00121 0,0.52996 0.17398,1.23825 0.52729,1.76821 l 4.88007,8.86814 z m -4.45502,74.285054 c -4.8715,6.75284 -6.86008,14.87779 -6.86008,27.31577 v 14.13211 c 0,4.063 3.35757,7.41835 7.5972,7.41835 h 38.93837 l 6.3328,-20.48683 h -32.02448 v -5.12848 c 0,-10.81792 7.00981,-16.49634 16.38887,-22.32955 -2.5816,-0.77164 -4.51734,-0.92093 -4.53034,-0.92137 z"
           transform="scale(1.1306284,0.88446386)" /></g></g><g
       id="g1582"
       transform="matrix(0.23145288,0,0,0.23145288,-6.5069069,3.1322974)"
       style="stroke-width:4.32053" /><g
       aria-label="M"
       transform="matrix(0.02972827,0,0,0.0298932,-17.436031,2.8200184)"
       id="text251"
       style="font-weight:bold;font-size:593.509px;font-family:Arial;-inkscape-font-specification:'Arial Bold';fill:#000000;stroke-width:1.57662;stroke-linecap:square;stroke-linejoin:bevel;paint-order:fill markers stroke;stop-color:#000000" /><path
       id="path411"
       style="font-weight:bold;font-size:593.509px;font-family:Arial;-inkscape-font-specification:'Arial Bold';fill:#e4e0d2;stroke-width:0.047;stroke-linecap:square;stroke-linejoin:bevel;paint-order:fill markers stroke;stop-color:#000000;fill-opacity:1"
       d="M 0 0 L 0 12.7 L 2.3693644 12.7 L 2.3693644 2.7026774 L 4.8674032 7.7101237 L 7.3230672 7.7101237 L 11.280448 0 L 8.3741659 0 L 6.1081543 4.9666219 L 3.8163045 0 L 0 0 z M 12.04991 0 L 5.6027588 12.7 L 8.0579061 12.7 L 13.505636 2.7026774 L 13.505636 12.7 L 15.875 12.7 L 15.875 0 L 12.04991 0 z M 19.05 8.4666667 A 2.1166668 2.1166668 0 0 0 16.933333 10.583333 A 2.1166668 2.1166668 0 0 0 19.05 12.7 A 2.1166668 2.1166668 0 0 0 21.166667 10.583333 A 2.1166668 2.1166668 0 0 0 19.05 8.4666667 z " /></g></svg>

<?xml version="1.0" encoding="UTF-8" standalone="no"?>
<!-- Created with Inkscape (http://www.inkscape.org/) -->

<svg
   width="48"
   height="48"
   viewBox="0 0 12.7 12.7"
   version="1.1"
   id="svg5"
   xml:space="preserve"
   inkscape:version="1.2.2 (732a01da63, 2022-12-09)"
   sodipodi:docname="logo.svg"
   inkscape:export-filename="logo102.png"
   inkscape:export-xdpi="200"
   inkscape:export-ydpi="200"
   xmlns:inkscape="http://www.inkscape.org/namespaces/inkscape"
   xmlns:sodipodi="http://sodipodi.sourceforge.net/DTD/sodipodi-0.dtd"
   xmlns:xlink="http://www.w3.org/1999/xlink"
   xmlns="http://www.w3.org/2000/svg"
   xmlns:svg="http://www.w3.org/2000/svg"><sodipodi:namedview
     id="namedview7"
     pagecolor="#505050"
     bordercolor="#eeeeee"
     borderopacity="1"
     inkscape:showpageshadow="0"
     inkscape:pageopacity="0"
     inkscape:pagecheckerboard="0"
     inkscape:deskcolor="#505050"
     inkscape:document-units="mm"
     showgrid="false"
     inkscape:zoom="11.095606"
     inkscape:cx="-34.112603"
     inkscape:cy="19.557291"
     inkscape:window-width="1920"
     inkscape:window-height="1009"
     inkscape:window-x="-8"
     inkscape:window-y="-8"
     inkscape:window-maximized="1"
     inkscape:current-layer="g317" /><defs
     id="defs2"><linearGradient
       inkscape:collect="always"
       id="linearGradient11216"><stop
         style="stop-color:#d45500;stop-opacity:0;"
         offset="0"
         id="stop11214" /><stop
         style="stop-color:#d45500;stop-opacity:1;"
         offset="0.56298202"
         id="stop11212" /></linearGradient><radialGradient
       inkscape:collect="always"
       xlink:href="#linearGradient11216"
       id="radialGradient11232"
       cx="116.1147"
       cy="83.009277"
       fx="116.1147"
       fy="83.009277"
       r="13.973234"
       gradientTransform="matrix(1,0,0,1.7210402,0,-59.853027)"
       gradientUnits="userSpaceOnUse" /></defs><g
     inkscape:groupmode="layer"
     id="layer2"
     inkscape:label="guides"><g
       id="g420"
       style="fill:#004455;fill-opacity:1;stroke:none;stroke-width:10;stroke-dasharray:none"
       transform="translate(250)"><path
         id="rect294"
         style="opacity:0.85;fill:#004455;fill-opacity:1;stroke:none;stroke-width:10;stroke-dasharray:none;paint-order:fill markers stroke;stop-color:#000000"
         d="M 0,0 V 66.145833 132.29167 H 66.145833 132.29167 V 66.145833 0 H 66.145833 Z" /></g></g><g
     inkscape:label="Calque 1"
     inkscape:groupmode="layer"
     id="layer1"><g
       id="g2558"
       transform="matrix(2.7812429,0,0,2.5705409,315.03707,-282.14318)"
       style="stroke-width:4.11397;stroke-dasharray:none"><path
         style="fill:none;stroke:#8fd14f;stroke-width:4.11397;stroke-dasharray:none;stroke-opacity:1;stop-color:#000000"
         d="M 57.778773,58.753303 H 46.41188 v 19.087094 h 9.745276 c 0,0 13.168298,-9.56e-4 13.277939,15.34881 v 5.809158"
         id="path628"
         sodipodi:nodetypes="cccccc" /><path
         style="fill:none;stroke:#c83737;stroke-width:4.11397;stroke-dasharray:none;stroke-opacity:1;stop-color:#000000"
         d="m 65.902433,76.172985 c 0,0 2.204081,-3.782803 3.410848,-6.212613 3.073913,-6.189286 -4.351258,-11.20707 -9.223896,-11.20707"
         id="path632"
         sodipodi:nodetypes="csc" /><path
         style="fill:none;stroke:#2d9bf0;stroke-width:4.11397;stroke-dasharray:none;stroke-opacity:1;stop-color:#000000"
         d="M 46.41188,83.130382 V 96.94138 h 18.150577"
         id="path634"
         sodipodi:nodetypes="ccc" /></g><g
       id="g2558-4"
       transform="matrix(2.7812429,0,0,2.5705409,56.807806,-242.79502)"
       style="stroke-width:4.11397;stroke-dasharray:none"><path
         style="opacity:1;fill:none;stroke:#2d9bf0;stroke-width:5.98395;stroke-dasharray:none;stroke-opacity:1;stop-color:#000000"
         d="m 46.41188,55.681732 v 22.158665 h 9.745276 c 0,0 13.168298,-9.56e-4 13.277939,15.34881 v 6.727368"
         id="path628-6"
         sodipodi:nodetypes="ccccc" /><path
         style="opacity:1;fill:none;stroke:#c83737;stroke-width:5.98395;stroke-dasharray:none;stroke-opacity:1;stop-color:#000000"
         d="m 66.924053,73.548837 c 0,0 1.182461,-1.158655 2.389228,-3.588465 3.073913,-6.189286 -4.351258,-11.20707 -9.223896,-11.20707 h -6.824856"
         id="path632-0"
         sodipodi:nodetypes="cscc" /><path
         style="opacity:1;fill:none;stroke:#00aa44;stroke-width:5.98395;stroke-dasharray:none;stroke-opacity:1;stop-color:#000000"
         d="M 62.684365,96.94138 H 46.41188 v -4.299837 l 8.024736,-7.821176"
         id="path634-5"
         sodipodi:nodetypes="cccc" /></g><g
       id="g11302"
       transform="matrix(0.76651729,0,0,0.77175354,-190.98195,-39.499304)"
       style="stroke-width:1.30017"><g
         id="g317"
         transform="matrix(0.11082341,0,0,0.11174831,220.33947,44.108141)"
         style="stroke-width:11.6832"><path
           id="text7981-2"
           style="font-style:normal;font-variant:normal;font-weight:bold;font-stretch:normal;font-size:176.652px;font-family:Rubik;-inkscape-font-specification:'Rubik Bold';fill:#e8e4d4;fill-opacity:1;stroke:none;stroke-width:0.54911252;stroke-dasharray:none;stroke-opacity:1;paint-order:fill markers stroke;stop-color:#000000"
           d="M 280.6918 74.347454 L 257.14692 166.32137 L 293.80936 166.32137 C 293.80936 166.32137 299.79966 166.4562 305.68941 170.49461 C 311.34604 174.37318 316.66589 180.23549 317.18206 197.22097 L 308.11599 226.55561 L 325.23123 235.20018 L 335.68546 201.36034 L 335.66931 199.07725 C 335.51247 173.13356 324.76367 156.88383 314.38961 149.77067 C 304.01555 142.6575 293.80936 142.79946 293.80936 142.79946 L 282.52654 142.79946 L 298.17829 81.657402 L 280.6918 74.347454 z M 298.88851 90.112281 L 293.71789 110.32812 C 294.57868 110.25958 295.41607 110.21972 296.22518 110.21972 C 307.88419 110.21972 314.59944 116.57984 314.59944 126.47233 C 314.59944 132.45556 312.1343 137.46604 306.41577 141.91874 C 309.32662 143.00357 312.47805 144.49205 315.68092 146.68816 C 318.2648 148.45985 320.84478 150.81872 323.30502 153.63227 C 331.78445 145.82848 335.79845 137.53617 335.79845 125.76775 C 335.79845 104.08972 322.11525 90.394012 298.88851 90.112281 z M 272.38976 95.532076 C 269.35576 96.875052 266.49076 98.40827 263.8994 100.15245 C 262.83949 100.85906 262.31216 101.9171 262.31216 103.15366 C 262.31216 103.68362 262.48614 104.39191 262.83945 104.92187 L 267.71952 113.79001 L 272.38976 95.532076 z M 267.93474 169.81713 C 263.06324 176.56997 261.07466 184.69492 261.07466 197.1329 L 261.07466 211.26501 C 261.07466 215.32801 264.43223 218.68336 268.67186 218.68336 L 307.61023 218.68336 L 313.94303 198.19653 L 281.91855 198.19653 L 281.91855 193.06805 C 281.91855 182.25013 288.92836 176.57171 298.30742 170.7385 C 295.72582 169.96686 293.79008 169.81757 293.77708 169.81713 L 267.93474 169.81713 z "
           transform="scale(1.1306284,0.88446386)" /></g></g></g></svg>
